X:1407
T:Fiddle rag
C:anon.
O:USA
R:Rag
Z:Transcribed by Frank Nordberg - http://www.musicaviva.com
F:http://abc.musicaviva.com/tunes/usa/fiddle-rag-1.abc
M:C|
L:1/8
Q:1/4=200
K:D
"D"(=F^F)Ad- dAAA|"D"(=F^F)Ad- dAAA|\
"G"(_B,=B,)DG- GDDD|"G"(_B,=B,)DG- GDDD|
"D"(=F^F)Ad- dAAA|"D"(=F^F)Ad- dAAA|\
"A7"(=c^c)ea- aeee|"A7"(=c^c)ea- aeee|
"D"(=F^F)Ad- dAAA|"D"(=F^F)Ad- dAAA|\
"G"(_B,=B,)DG- GDDD|"G"(_B,=B,)DG- GDDD|
"D"(=F^F)Ad- dAAA|"A7"(=c^c)ea- aeee|\
"D"d2 (e=f ^f)dBA|"D"({[=Fc]}[^F4d4])[F2d2] z2||
({=F}"D"^F2) [FA][FA]  [FB][FB] [FA][FA]|[F=c][Fc] [FA][FA] [FB][FB] [FA][FA]|\
({^A,}"G"B,2) [B,D][B,D]  [B,E][B,E] [B,D][B,D]|[B,=F][B,F] [B,D][B,D] [B,E][B,E] [B,D][B,D]|
({=F}"D"^F2) [FA][FA]  [FB][FB] [FA][FA]|[F=c][Fc] [FA][FA] [FB][FB] [FA][FA]|\
({=c}"A"^c2) [ce][ce]  [cf][cf] [ce][ce]|[ca][ce] [cf][cg] [cf][ce] [cf][ce]|
({=F}"D"^F2) [FA][FA]  [FB][FB] [FA][FA]|[F=c][Fc] [FA][FA] [FB][FB] [FA][FA]|\
({^A,}"G"B,2) [B,D][B,D]  [B,E][B,E] [B,D][B,D]|[B,=F][B,F] [B,D][B,D] [B,E][B,E] [B,D][B,D]|
({=F}"D"^F2) [FA][FA]  [Fd][Fd] [FA][FA]|({=c}"A"^c2) [ce][ce]  [ca][ca] [ce][ce]|\
"D"d2 (e=f ^f)dBA|[Fd][Fd]([=Fc][^F-d-][^F2d2]) z2|]
W:
W:
W:  From Musica Viva - http://www.musicaviva.com
W:  the Internet center for free sheet music downloads.
